X: 2120
T: Ömrümüzün Son Demi
C: Selahattin Altınbaş
O: Turkey
F: http://compmusic.upf.edu/node/140
N: huzzam--sarki--duyek--omrumuzun_son--selahattin_altinbas
N: makam= huzzam
N: form= sarki
N: usul= duyek = 8/4
M: 8/4
L: 1/16
K: C _1/4B _3/4e ^3/4f 
Q: 1/4=174
%%MIDI tuningsystem comma53
z2 a4 _b2 a2 g2 f2 e2  | d2 ed e2 f2 g8  | \
w:  Öm rü mü zün   |  *  son  *  *  de mi   | 
z2 f4 f2 f2 g2 fe d2  | 
w:  son ba ha *  rı  | 
d2 c2 g2 {a}gf f8  | z2 c'4 d'2 c'2 _b2 a2 g2  | \
w:  dır  *  ar *  *  *  tık    |  Öm rü mü zün   | 
f2 g4 _b2 a2 g2 f2 e2  | d2 d4 d2 d2 ef fe d2  | 
w:  *  son  de mi   |  *  son ba ha *  *  rı  | 
d2 cB c2 d2 d8  | ag2_b ag fe d3/2e/ f2 z4  | \
w:  dır  *  *  ar *  tık    |  SAZ  | 
gf2a gf ed c3/2d/ e2 z4  | 
w:   | 
fe2g fe d2 ag2_b ag f2  | d'd' c'_b ag gf fe ed d4  | 
w:   |   | 
z2 d4 e2 f2 g2 f2 e2  | d2 c2 a2 ag g8  | \
w:  Ma zi ye  *  bir   |  *  *  ba kı *  ver    | 
fg3 z2 _b2 a2 g2 f2 e2  | 
w:  ne ler  ne ler   | 
d4 ef3 f8  | z2 g2 f2 e2 d2 a2 g2 f2  | \
w:  *  bı rak tık    |  Ma *  zi ye  *  bir   | 
e2 d2 e2 dc cB B6  | d2 B4 _b2 ag fe d2 cB  | 
w:  *  *  ba kı *  ver    |  ne ler  ne ler   | 
B4 BB3 B8  | ag2_b ag fe d3/2e/ f2 z4  | \
w:  *  bı rak tık    |  SAZ  | 
gf2a gf ed c3/2d/ e2 z4  | 
w:   | 
fe2g fe d2 ag2_b ag f2  | g2 b4 d'2 c'2 b^a b4  | \
w:   |   | 
z4 g2 b2 b8  | 
w:  Kü se rek   | 
z2 c'2 b2 ^a2 g2 gf f4  | ^e2 f4 g2 f2 _1/4e2 d2 cB  | \
w:  ay *  rı lır *  *  sak   |  o lur  i nan  | 
B4 B2 B2 B8  | z4 g2 b2 b8  | 
w:  *  ki  ya zık    |  Kü se rek   | 
z2 c'2 b2 ^a2 g2 gf f4  | ^e2 f4 g2 a2 g2 f2 _3/4e2  | \
w:  ay *  rı lır *  *  sak   |  o lur  i nan   | 
d2 cB c2 d2 d8  | 
w:  *  *  *  ki  ya zık    | 
ag2_b ag fe d3/2e/ f2 z4  | gf2a gf ed c3/2d/ e2 z4  | 
w:  SAZ  |   | 
fe2g fe d2 ag2_b ag f2  | d'd' c'_b ag gf fe ed d4  | 
w:   |   | 
z2 d4 e2 f2 g2 f2 e2  | d2 c2 a2 ag g8  | \
w:  Ma zi ye  *  bir   |  *  *  ba kı *  ver    | 
fg3 z2 _b2 a2 g2 f2 e2  | 
w:  ne ler  ne ler   | 
d4 ef3 f8  | z2 g2 f2 e2 d2 a2 g2 f2  | \
w:  *  bı rak tık    |  Ma *  zi ye  *  bir   | 
e2 d2 e2 dc cB B6  | d2 B4 _b2 ag fe d2 cB  | 
w:  *  *  ba kı *  ver    |  ne ler  ne ler   | 
B4 BB3 B8  | |


